X: 19794
T: Jer O'Connell's
R: polka
M: 2/4
K: Dmajor
|:AD F/E/D|FA dz|cA AG|EF GF/G/|
AD F/E/D|FA dz|cA GE|ED Dz:|
|:Ad d>e|fg e>d|cA AB|cd e>c|
Ad d>e|fg e>d|cA GE|ED Dz:|

